dist/img/icons/Header/ios-keypad.svg

<svg width="31" height="31" viewBox="0 0 31 31" fill="none" xmlns="http://www.w3.org/2000/svg">
<path d="M22.7917 3.83341C24.3958 3.83341 25.7083 5.14591 25.7083 6.75008V24.2501C25.7083 25.8542 24.3958 27.1667 22.7917 27.1667V3.83341ZM0.916656 27.1667C0.916656 28.7709 2.22916 30.0834 3.83332 30.0834H16.9583C18.5625 30.0834 19.875 28.7709 19.875 27.1667V3.83341C19.875 2.22925 18.5625 0.916748 16.9583 0.916748H3.83332C2.22916 0.916748 0.916656 2.22925 0.916656 3.83341V27.1667ZM28.625 24.2501C29.8354 24.2501 30.8125 23.273 30.8125 22.0626V8.93758C30.8125 7.72716 29.8354 6.75008 28.625 6.75008V24.2501Z" fill="#721BE3"/>
</svg>

<svg width="31" height="31" fill="none" xmlns="http://www.w3.org/2000/svg"><path d="M22.792 3.833a2.925 2.925 0 0 1 2.916 2.917v17.5a2.925 2.925 0 0 1-2.916 2.917V3.833ZM.917 27.167a2.925 2.925 0 0 0 2.916 2.916h13.125a2.925 2.925 0 0 0 2.917-2.916V3.833A2.925 2.925 0 0 0 16.958.917H3.833A2.925 2.925 0 0 0 .917 3.833v23.334Zm27.708-2.917c1.21 0 2.188-.977 2.188-2.187V8.938c0-1.21-.978-2.188-2.188-2.188v17.5Z" fill="#721BE3"/></svg>
